!! 00000] TT[WS
!!!OTL: Renjia honghuo zan zuonan
!!!ARE: Asia, China, Shanxi Hequ
!! Ethnic Group: Han
!! WII, 7
!!!SCT: J0409
!!!YEM: Copyright 1995, estate of Helmut Schaffrath.
**kern
*ICvox
*Ivox
*M2/4
*k[b-e-]
*B-:
{8.ccc
16ccc
4ccc
=1
8ccc
8fff
8bb-
8gg
=2
8.bb-
16gg
16ff
16gg
16ff
16dd
=3
2cc}
=4
{8.ff
16gg
4bb-
=5
8bb-
8ff
8bb-
8gg
=6
8ff
8dd
8ff
8gg
=7
2ff}
==
!!!AGN: Shange, Shanqu. Qingge, Aisu
!!!ONB: ESAC (Essen Associative Code) Database: CHINA
!!!AMT: simple duple
!!!AIN: vox
!!!EED: Helmut Schaffrath
!!!EEV: 1.0
*-
